X:3
T:To Rosie Instr:Harp
C:Achazia Songweaver
N:made 15 mars 2009
Q:1/4=105
V:1
M:4/4
L:1/8
K:C
z8 |z4 e2 d2 |B8 |z4 e2 d2 |B8 |z4 e2 d2 |
B8 |z4 e2 d2 |B6 z2 |[e6b6] [e2b2] |[a6d6] [d2a2] |[c4g4] z4 |[d2g2c2] [c3g3] z3 |
[b3e3] z3 [e2b2] |[d4a4] z2 [d2a2] |[c3g3] z3 [g2c2] |[c2g2d2] [c2g3] z4 |[e4b4] z2 [e2b2] |[d3b4] z3 [d2b2] |[d4a4] z2 [d2a2] |
[d2e2a2] [d3a3] z3 |[e3b3] z3 [e2b2] |[d6b6] [d2b2] |[d3a3] z3 [d2a2] |[d3e3a3] a d4 |z4 e2 d2 |
B6 z2 |z4 e2 d2 |B8 |z4 e2 d2 |B8 |z4 e2 d2 |B4 z4 |
[e3b3] z3 [e2b2] |[d4a4] z2 [d2a2] |[c3g4] z3 [c2g2] |[c2d2g2] [c3g3] z3 |[e3b3] z3 [e2b2] |[d4a4] z2 [d2a2] |[c6g6] [c2g2] |
[c2d2g2] [c2g2] z4 |[b3e4] z3 [e2b2] |[d4b6] z2 [d2b2] |[d4a4] z2 [d2a2] |[d2e2a2] [d3a3] z3 |[e3b3] z3 [e2b2] |[d4b4] z2 [d2b2] |
[d3a3] z3 [d2a2] |[d2e2a2] [a3d4] z3 |z4 e2 d2 |B8 |z4 e2 d2 |B4 z4 |z4 e2 d2 |
B4 e2 d2 |B4 e2 d2 |B8 |]
